!!!COM:	de Orto, Marbrianus
!!!CDT:	~1460///-1529///
!!!OTL:	Credo &agrave; 5
!!!AGN:	Mass section; Credo
!!!SCT:	Ort2002
!!!SCA:	Ort2002
!!!voices-OPR:	4
!!!voices:	5
**kern	**silbe	**kern	**silbe	**kern	**silbe	**kern	**silbe	**kern	**silbe
*staff5	*staff5	*staff4	*staff4	*staff3	*staff3	*staff2	*staff2	*staff1	*staff1
*Ivox	*	*Ivox	*	*Ivox	*	*Ivox	*	*Ivox	*
*I"Bassus	*	*I"Tenor2	*	*I"Tenor1	*	*I"Altus	*	*I"Superius	*
*I'B	*	*I'T	*	*I'T	*	*I'A	*	*I'S	*
*>[A,B,C,D]	*>[A,B,C,D]	*>[A,B,C,D]	*>[A,B,C,D]	*>[A,B,C,D]	*>[A,B,C,D]	*>[A,B,C,D]	*>[A,B,C,D]	*>[A,B,C,D]	*>[A,B,C,D]
*>A	*>A	*>A	*>A	*>A	*>A	*>A	*>A	*>A	*>A
*clefF4	*	*clefGv2	*	*clefGv2	*	*clefGv2	*	*clefG2	*
*k[b-]	*	*k[b-]	*	*k[b-]	*	*k[b-]	*	*k[b-]	*
*M2/1	*	*M2/1	*	*M2/1	*	*M2/1	*	*M2/1	*
*met(C|)	*	*met(C|)	*	*met(C|)	*	*met(C|)	*	*met(C|)	*
!!incipit: 6
!!section: Patrem
!!!OMD: Patrem
=1-	=1-	=1-	=1-	=1-	=1-	=1-	=1-	=1-	=1-
0d	Pa-	0r	.	0r	.	0r	.	0r	.
=2	=2	=2	=2	=2	=2	=2	=2	=2	=2
0G	-trem	0r	.	0d	Pa-	0r	.	0r	.
=3	=3	=3	=3	=3	=3	=3	=3	=3	=3
1.B-	om-	0d	Pa-	0G	-trem	0r	.	0r	.
2B-\	-ni-	.	.	.	.	.	.	.	.
=4	=4	=4	=4	=4	=4	=4	=4	=4	=4
2B-\	-po-	1G	.	0d	om-	0r	.	0r	.
4A\	.	.	.	.	.	.	.	.	.
4G\	.	.	.	.	.	.	.	.	.
2F\	.	2A/	.	.	.	.	.	.	.
2G\	.	2B-\	.	.	.	.	.	.	.
=5	=5	=5	=5	=5	=5	=5	=5	=5	=5
2E-\	-ten-	1G	-trem	1c	-ni-	0g	Pa-	0r	.
2C/	.	.	.	.	.	.	.	.	.
1E-i	.	1r	.	1B-	-po-	.	.	.	.
=6	=6	=6	=6	=6	=6	=6	=6	=6	=6
1F	-tem	0r	.	0A	-ten-	0c	-trem	0r	.
1r	.	.	.	.	.	.	.	.	.
=7	=7	=7	=7	=7	=7	=7	=7	=7	=7
0E-i	fac-	1B-	fac-	0G	-tem	0g	om-	0r	.
.	.	1c	.	.	.	.	.	.	.
=8	=8	=8	=8	=8	=8	=8	=8	=8	=8
0D	-to-	1d	-to-	0r	.	1f	-ni-	0a	fac-
.	.	[1A	-rem	.	.	1d	-po-	.	.
=9	=9	=9	=9	=9	=9	=9	=9	=9	=9
0AA	-rem	1A]	.	0r	.	0e	-ten-	0cc	-to-
.	.	2.A/	ce-	.	.	.	.	.	.
.	.	4c\	.	.	.	.	.	.	.
=10	=10	=10	=10	=10	=10	=10	=10	=10	=10
1r	.	1B-	.	0r	.	1f	.	0dd	-rem
1D	ce-	1A	-li	.	.	1d	.	.	.
=11	=11	=11	=11	=11	=11	=11	=11	=11	=11
1C	-li	2.c\	et	0r	.	1g	-tem	1ee	ce-
.	.	4B-\	.	.	.	.	.	.	.
1D	.	4A/	.	.	.	1f	.	1ff	-li
.	.	4G/	.	.	.	.	.	.	.
.	.	2F/	.	.	.	.	.	.	.
=12	=12	=12	=12	=12	=12	=12	=12	=12	=12
1C	et	1c	ter-	0r	.	2r	.	1ee	et
.	.	.	.	.	.	2.g\	fac-	.	.
1BB-	ter-	1G	.	.	.	.	.	[1dd	ter-
.	.	.	.	.	.	4f\	.	.	.
.	.	.	.	.	.	2d\	-to-	.	.
=13	=13	=13	=13	=13	=13	=13	=13	=13	=13
0AA	-re,	0A	-re,	0r	.	1e	-rem	2dd\]	.
.	.	.	.	.	.	.	.	4cc#i\	.
.	.	.	.	.	.	.	.	4bni\	.
.	.	.	.	.	.	1e	ce-	1cc#i	.
=14	=14	=14	=14	=14	=14	=14	=14	=14	=14
2.D\	vi-	2.F/	vi-	0r	.	1d	-li	0dd	-re,
4E\	-si-	4G/	-si-	.	.	.	.	.	.
2F\	-bi-	2A/	-bi-	.	.	2r	.	.	.
2G\	-li-	[2G/	.	.	.	2B-\	vi-	.	.
=15	=15	=15	=15	=15	=15	=15	=15	=15	=15
2C/	-um	2G/]	.	1e	vi-	2c\	-si-	0r	.
2E\	om-	2G/	-li-	.	.	2c\	-bi-	.	.
2D\	.	1A	-um	1f	-si-	2d\	-li-	.	.
2F\	.	.	.	.	.	[2c\	-um	.	.
=16	=16	=16	=16	=16	=16	=16	=16	=16	=16
2C/	.	2r	.	1g	-bi-	2c\]	.	0r	.
2E\	.	2G/	om-	.	.	1c	om-	.	.
1D	-ni-	2A/	.	1f	-li-	.	.	.	.
.	.	2F/	.	.	.	2Bni\	-ni-	.	.
=17	=17	=17	=17	=17	=17	=17	=17	=17	=17
0C	-um	1G	.	0e	-um	1c	-um	0r	.
.	.	2A/	.	.	.	1r	.	.	.
.	.	2G/	.	.	.	.	.	.	.
=18	=18	=18	=18	=18	=18	=18	=18	=18	=18
0r	.	2c\	.	1e	om-	1r	.	0r	.
.	.	1c	-ni-	.	.	.	.	.	.
.	.	.	.	1d	-ni-	1G	et	.	.
.	.	2Bni\	.	.	.	.	.	.	.
=19	=19	=19	=19	=19	=19	=19	=19	=19	=19
1F	et	1c	-um	0c	-um	1A	in-	0r	.
2E\	.	2r	.	.	.	2G/	-vi-	.	.
2F\	in-	2F/	et	.	.	2A/	-si-	.	.
=20	=20	=20	=20	=20	=20	=20	=20	=20	=20
2E\	-vi-	1G	in-	1e	et	2B-\	-bi-	0r	.
2C/	-si-	.	.	.	.	2c\	.	.	.
1D	-bi-	4F/	-vi-	1f	in-	2A/	.	.	.
.	.	4G/	.	.	.	.	.	.	.
.	.	4A/	.	.	.	[2a\	.	.	.
.	.	4B-\	.	.	.	.	.	.	.
=21	=21	=21	=21	=21	=21	=21	=21	=21	=21
2C/	.	2c\	-si-	2e\	-vi-	2a\]	.	0r	.
2D\	.	1A	-bi-	2d\	-si-	4g\	.	.	.
.	.	.	.	.	.	4f\	.	.	.
1E	-li-	.	.	2d\	-bi-	1g	-li-	.	.
.	.	2G/	-li-	2c#i\	-li-	.	.	.	.
=22	=22	=22	=22	=22	=22	=22	=22	=22	=22
0D	-um.	1A	-um.	0d	-um.	0f	-um.	0r	.
.	.	1d	.	.	.	.	.	.	.
=23	=23	=23	=23	=23	=23	=23	=23	=23	=23
1.G	Et	4d\	Et	0r	.	1B-	.	0dd	Et
.	.	4c\	.	.	.	.	.	.	.
.	.	4B-\	.	.	.	.	.	.	.
.	.	4A/	.	.	.	.	.	.	.
.	.	2G/	.	.	.	2r	.	.	.
2D\	in	2F/	in	.	.	2d\	Et	.	.
=24	=24	=24	=24	=24	=24	=24	=24	=24	=24
1E	u-	1c	u-	0r	.	4c\	in	1g	in
.	.	.	.	.	.	4B-\	.	.	.
.	.	.	.	.	.	4A/	.	.	.
.	.	.	.	.	.	4G/	.	.	.
1D	-num	1d	-num	.	.	1A	.	1f	.
=25	=25	=25	=25	=25	=25	=25	=25	=25	=25
2AA/	Do-	1c	Do-	0r	.	1e	u-	1cc	u-
2AA/	-mi-	.	.	.	.	.	.	.	.
1BB-	-num,	1B-	-mi-	.	.	2d\	-num	1dd	-num
.	.	.	.	.	.	[2f\	Do-	.	.
=26	=26	=26	=26	=26	=26	=26	=26	=26	=26
[0F	Je-	1A	-num,	0r	.	2f\]	.	1.cc	Do-
.	.	.	.	.	.	2f\	-mi-	.	.
.	.	2.A/	Je-	.	.	1c	-num,	.	.
.	.	.	.	.	.	.	.	2b-\	-mi-
.	.	4B-\	.	.	.	.	.	.	.
=27	=27	=27	=27	=27	=27	=27	=27	=27	=27
1F]	.	2c\	-sum	0r	.	2r	.	1a	-num,
.	.	1d	Chri-	.	.	2A/	Je-	.	.
1E	-sum	.	.	.	.	2B-\	.	1g	Je-
.	.	2c\	.	.	.	2G/	-sum	.	.
=28	=28	=28	=28	=28	=28	=28	=28	=28	=28
1D	Chri-	1d	-stum,	0r	.	2A/	Chri-	1f	-sum
.	.	.	.	.	.	2B-\	.	.	.
1C	-stum,	1e	Fi-	.	.	1c	-stum,	1g	Chri-
=29	=29	=29	=29	=29	=29	=29	=29	=29	=29
1r	.	2f\	-li-	0r	.	1.F	Fi-	0a	-stum,
.	.	1f	-um	.	.	.	.	.	.
1D	Fi-	.	.	.	.	.	.	.	.
.	.	4e\	De-	.	.	2G/	-li-	.	.
.	.	4d\	.	.	.	.	.	.	.
=30	=30	=30	=30	=30	=30	=30	=30	=30	=30
1F	-li-	1c	-i	0r	.	0A	-um	1a	Fi-
1F	-um	1r	.	.	.	.	.	1cc	-li-
=31	=31	=31	=31	=31	=31	=31	=31	=31	=31
0BB-	De-	0f	u-	0r	.	0B-	.	0dd	-um
=32	=32	=32	=32	=32	=32	=32	=32	=32	=32
0C	.	1e	-ni-	0r	.	1.G	De-	0ee	De-
.	.	1c	.	.	.	.	.	.	.
.	.	.	.	.	.	2A/	.	.	.
=33	=33	=33	=33	=33	=33	=33	=33	=33	=33
1BB-	-i	0d	.	0r	.	0B-	-i	1.ff	.
1B-	.	.	.	.	.	.	.	.	.
.	.	.	.	.	.	.	.	4ee\	.
.	.	.	.	.	.	.	.	4dd\	.
=34	=34	=34	=34	=34	=34	=34	=34	=34	=34
1A	u-	1e	-ge-	0r	.	1c	u-	1cc	-i
1B-	.	1d	.	.	.	2B-\	-ni-	1ff	u-
.	.	.	.	.	.	[2f\	-ge-	.	.
=35	=35	=35	=35	=35	=35	=35	=35	=35	=35
2r	.	1c	-ni-	0r	.	4f\]	.	1ee	-ni-
.	.	.	.	.	.	4g\	.	.	.
2A\	-ni-	.	.	.	.	1a	.	.	.
1B-	-ge-	1d	.	.	.	.	.	[1dd	-ge-
.	.	.	.	.	.	2g\	.	.	.
=36	=36	=36	=36	=36	=36	=36	=36	=36	=36
0A	-ni-	0e	.	0r	.	0a	.	1dd]	.
.	.	.	.	.	.	.	.	1cc#i	-ni-
=37	=37	=37	=37	=37	=37	=37	=37	=37	=37
1D	-tum.	2.d\	-tum.	0r	.	1.f	-ni-	0dd	-tum.
.	.	4c\	.	.	.	.	.	.	.
1d	.	1B-	.	.	.	.	.	.	.
.	.	.	.	.	.	2g\	.	.	.
=38	=38	=38	=38	=38	=38	=38	=38	=38	=38
2.c\	Et	1A	Et	1e	Et	0a	-tum.	0r	.
4B-\	.	.	.	.	.	.	.	.	.
1A	ex	1c	ex	1f	ex	.	.	.	.
=39	=39	=39	=39	=39	=39	=39	=39	=39	=39
2.G\	Pa-	2B-\	Pa-	0g	Pa-	1d	Et	0r	.
.	.	1d	.	.	.	.	.	.	.
4F\	.	.	.	.	.	.	.	.	.
1E	-tre	.	.	.	.	1e	ex	.	.
.	.	2c#i\	.	.	.	.	.	.	.
=40	=40	=40	=40	=40	=40	=40	=40	=40	=40
1D	na-	1d	-tre	1f	-tre	2f\	Pa-	0r	.
.	.	.	.	.	.	1d	.	.	.
1A	-tum,	2r	.	1e	na-	.	.	.	.
.	.	2A/	na-	.	.	2c\	-tre	.	.
=41	=41	=41	=41	=41	=41	=41	=41	=41	=41
2r	.	1B-	.	0d	-tum,	2d\	na-	0r	.
2.G\	an-	.	.	.	.	4e\	.	.	.
.	.	.	.	.	.	4f\	.	.	.
.	.	2G/	.	.	.	2g\	.	.	.
4F\	.	.	.	.	.	.	.	.	.
[2D\	-te	2A/	.	.	.	[2f\	-tum,	.	.
=42	=42	=42	=42	=42	=42	=42	=42	=42	=42
2D\]	.	2.B-\	.	0r	.	2f\]	.	0dd	an-
2.BB-/	om-	.	.	.	.	2.d\	an-	.	.
.	.	4c\	.	.	.	.	.	.	.
.	.	2d\	.	.	.	.	.	.	.
4C/	.	.	.	.	.	4e\	.	.	.
2D\	.	[2B-\	-tum,	.	.	2f\	-te	.	.
=43	=43	=43	=43	=43	=43	=43	=43	=43	=43
2E-i\	.	2B-\]	.	0r	.	2g\	om-	0g	-te
2.C/	.	2.c\	an-	.	.	2.e\	-ni-	.	.
4D\	.	4B-\	.	.	.	4f\	.	.	.
2E-\	-ni-	4A/	.	.	.	2g\	-a	.	.
.	.	4G/	.	.	.	.	.	.	.
=44	=44	=44	=44	=44	=44	=44	=44	=44	=44
2D\	-a	2F/	-te	0r	.	2a\	se-	0dd	om-
2.G\	se-	2G/	.	.	.	2b-\	.	.	.
.	.	2r	.	.	.	1g	-cu-	.	.
4A\	.	.	.	.	.	.	.	.	.
2B-\	.	2d\	om-	.	.	.	.	.	.
=45	=45	=45	=45	=45	=45	=45	=45	=45	=45
2A\	.	2e\	-ni-	0r	.	1a	-la.	1cc	-ni-
2F\	-cu-	1f	-a	.	.	.	.	.	.
1B-	-la.	.	.	.	.	1d	De-	1dd	-a
.	.	2d\	se-	.	.	.	.	.	.
=46	=46	=46	=46	=46	=46	=46	=46	=46	=46
2r	.	2e\	.	0r	.	1a	-um	1cc	se-
2F\	De-	2f\	-cu-	.	.	.	.	.	.
1G	-um	[1d	-la.	.	.	1g	.	1b-	-cu-
=47	=47	=47	=47	=47	=47	=47	=47	=47	=47
1D	de	1d]	.	0r	.	1.f	de	0a	-la.
1F	.	2r	.	.	.	.	.	.	.
.	.	2A/	De-	.	.	4e\	.	.	.
.	.	.	.	.	.	4d\	.	.	.
=48	=48	=48	=48	=48	=48	=48	=48	=48	=48
1E	De-	2B-\	.	1G	De-	2d\	De-	0r	.
.	.	2G/	-um	.	.	2c\	.	.	.
1D	-o,	2A/	de	1F	-um	1d	-o,	.	.
.	.	2B-\	De-	.	.	.	.	.	.
=49	=49	=49	=49	=49	=49	=49	=49	=49	=49
2r	.	2.c\	-o,	1A	de	1r	.	0r	.
2F\	lu-	.	.	.	.	.	.	.	.
.	.	4B-\	.	.	.	.	.	.	.
1E	-men	1G	.	1c	De-	1g	lu-	.	.
=50	=50	=50	=50	=50	=50	=50	=50	=50	=50
2.D\	de	1A	lu-	1.d	-o,	0f	-men	0r	.
4C/	.	.	.	.	.	.	.	.	.
[1BB-	lu-	2.B-\	-men	.	.	.	.	.	.
.	.	.	.	2e\	lu-	.	.	.	.
.	.	4c\	.	.	.	.	.	.	.
=51	=51	=51	=51	=51	=51	=51	=51	=51	=51
1BB-]	.	0d	.	1.f	-men	1b-	de	0r	.
[1D	.	.	.	.	.	[1a	lu-	.	.
.	.	.	.	2e\	de	.	.	.	.
=52	=52	=52	=52	=52	=52	=52	=52	=52	=52
1D]	.	1r	.	1d	lu-	2a\]	.	0r	.
.	.	.	.	.	.	2g\	.	.	.
1E-i	-mi-	1G	de	1c	-mi-	[1g	.	.	.
=53	=53	=53	=53	=53	=53	=53	=53	=53	=53
0D	-ne,	0A	.	0d	-ne,	1g]	.	0r	.
.	.	.	.	.	.	1f#i	-mi-	.	.
=54	=54	=54	=54	=54	=54	=54	=54	=54	=54
2r	.	2.G/	lu-	0r	.	1g	-ne,	[0dd	De-
2.d\	De-	.	.	.	.	.	.	.	.
.	.	4A/	.	.	.	.	.	.	.
.	.	4B-\	.	.	.	2r	.	.	.
4c\	.	4c\	.	.	.	.	.	.	.
[2B-\	.	[2d\	.	.	.	[2G/	De-	.	.
=55	=55	=55	=55	=55	=55	=55	=55	=55	=55
4B-\]	.	2d\]	.	0r	.	4G/]	.	0dd]	.
4A\	.	.	.	.	.	4A/	.	.	.
2G\	.	4c\	-mi-	.	.	4B-\	.	.	.
.	.	4B-\	.	.	.	4c\	.	.	.
2D\	.	2A/	-ne,	.	.	1d	.	.	.
[2G\	-um	2G/	De-	.	.	.	.	.	.
=56	=56	=56	=56	=56	=56	=56	=56	=56	=56
2G\]	.	1A	.	0r	.	2e\	.	1cc	-um
2F\	ve-	.	.	.	.	2f\	.	.	.
1G	-rum	1G	-um	.	.	2d\	-um	1b-	ve-
.	.	.	.	.	.	[2g\	ve-	.	.
=57	=57	=57	=57	=57	=57	=57	=57	=57	=57
1D	de	1d	ve-	0r	.	2g\]	.	1a	-rum
.	.	.	.	.	.	2f\	.	.	.
1E	De-	1B-	-rum	.	.	1g	-rum	1g	de
=58	=58	=58	=58	=58	=58	=58	=58	=58	=58
1C	-o	2r	.	0r	.	1e	de	1.cc	De-
.	.	2c\	de	.	.	.	.	.	.
[1F	ve-	2.A/	De-	.	.	[1f	De-	.	.
.	.	.	.	.	.	.	.	2b-\	.
.	.	4G/	.	.	.	.	.	.	.
=59	=59	=59	=59	=59	=59	=59	=59	=59	=59
2F\]	.	1c	.	0r	.	2f\]	.	2a/	.
2E\	.	.	.	.	.	2g\	-o	2g/	.
1G	.	2B-\	.	.	.	[1d	ve-	1b-	-o
.	.	4A/	.	.	.	.	.	.	.
.	.	4G/	.	.	.	.	.	.	.
=60	=60	=60	=60	=60	=60	=60	=60	=60	=60
1D	.	1F	.	0r	.	1d]	.	2.a/	ve-
.	.	.	.	.	.	.	.	4g/	.
1E	.	1G	-o	.	.	1c	.	[1g	.
=61	=61	=61	=61	=61	=61	=61	=61	=61	=61
0D	-ro.	0A	ve-	0r	.	0d	-ro.	1g]	.
.	.	.	.	.	.	.	.	1f#i	.
=62	=62	=62	=62	=62	=62	=62	=62	=62	=62
1r	.	1G	-ro.	0r	.	2r	.	0g	-ro.
.	.	.	.	.	.	2.d\	Ge-	.	.
1G	Ge-	1B-	.	.	.	.	.	.	.
.	.	.	.	.	.	4e\	.	.	.
.	.	.	.	.	.	4f\	.	.	.
.	.	.	.	.	.	4g\	.	.	.
=63	=63	=63	=63	=63	=63	=63	=63	=63	=63
2F\	.	2A/	Ge-	1d	Ge-	2a\	.	0r	.
2G\	.	2B-\	-ni-	.	.	1g	.	.	.
1A	-ni-	1c	-tum	1c	-ni-	.	.	.	.
.	.	.	.	.	.	2f\	-ni-	.	.
=64	=64	=64	=64	=64	=64	=64	=64	=64	=64
1B-	-tum	1G	non	1d	-tum	2.g\	-tum	0r	.
.	.	.	.	.	.	4f\	.	.	.
2r	.	1c	.	1e	non	4e\	.	.	.
.	.	.	.	.	.	4d\	.	.	.
[2A\	non	.	.	.	.	2c\	.	.	.
=65	=65	=65	=65	=65	=65	=65	=65	=65	=65
4A\]	.	2F/	fac-	0f	fac-	2r	.	0r	.
4G\	.	.	.	.	.	.	.	.	.
4F\	.	1c	.	.	.	2c\	non	.	.
4E\	.	.	.	.	.	.	.	.	.
1D	fac-	.	.	.	.	1d	.	.	.
.	.	2Bni\	.	.	.	.	.	.	.
=66	=66	=66	=66	=66	=66	=66	=66	=66	=66
1C	-tum,	1c	.	0e	.	1g	fac-	0r	.
2r	.	1G	.	.	.	1g	-tum,	.	.
2E\	con-	.	.	.	.	.	.	.	.
=67	=67	=67	=67	=67	=67	=67	=67	=67	=67
2F\	-sub-	2A/	.	0d	-tum,	2f\	.	0r	.
2.G\	-stan-	2B-\	.	.	.	2d\	.	.	.
.	.	2G/	.	.	.	1r	.	.	.
4A\	-ti-	.	.	.	.	.	.	.	.
2B-\	-a-	[2g\	.	.	.	.	.	.	.
=68	=68	=68	=68	=68	=68	=68	=68	=68	=68
1A	-lem	2g\]	.	0r	.	1r	.	1cc	con-
.	.	2f#i\	.	.	.	.	.	.	.
2r	.	1g	.	.	.	2G/	con-	1dd	-sub-
2G\	Pa-	.	.	.	.	2B-\	-sub-	.	.
=69	=69	=69	=69	=69	=69	=69	=69	=69	=69
2A\	.	2e\	-tum,	0r	.	2c\	-stan-	1cc	-stan-
2F\	.	2f\	.	.	.	2A/	-ti-	.	.
1G	-tri,	2r	.	.	.	2.d\	-a-	1b-	-ti-
.	.	2B-\	con-	.	.	.	.	.	.
.	.	.	.	.	.	4e\	.	.	.
=70	=70	=70	=70	=70	=70	=70	=70	=70	=70
2r	.	2F/	-sub-	0r	.	2f\	.	0a	-a-
2F\	per	1A	-stan-	.	.	2d\	.	.	.
2D\	.	.	.	.	.	2f\	.	.	.
2F\	.	4G/	-ti-	.	.	2c\	-lem	.	.
.	.	4F/	.	.	.	.	.	.	.
=71	=71	=71	=71	=71	=71	=71	=71	=71	=71
1C	quem	1c	-a-	0r	.	2r	.	0g	-lem
.	.	.	.	.	.	2e\	Pa-	.	.
2r	.	1G	.	.	.	2d\	.	.	.
2E\	om-	.	.	.	.	2c\	.	.	.
=72	=72	=72	=72	=72	=72	=72	=72	=72	=72
2D\	.	2B-\	.	0r	.	1d	-tri,	1f	Pa-
2F\	.	2A/	.	.	.	.	.	.	.
2E\	.	2G/	.	.	.	2r	.	2g/	.
2F\	-ni-	[2F/	-lem	.	.	2c\	Pa-	[2a/	.
=73	=73	=73	=73	=73	=73	=73	=73	=73	=73
1D	-a	2F/]	.	0r	.	1d	-tri,	2a/]	.
.	.	2A/	Pa-	.	.	.	.	4g/	.
.	.	.	.	.	.	.	.	4f/	.
1r	.	1B-	.	.	.	2r	.	1g	.
.	.	.	.	.	.	2d\	per	.	.
=74	=74	=74	=74	=74	=74	=74	=74	=74	=74
2r	.	2A/	-tri,	0r	.	2c\	.	0a	-tri,
2F\	fac-	2c\	per	.	.	1f	quem	.	.
2D\	.	2d\	.	.	.	.	.	.	.
[2F\	.	[2c\	quem	.	.	4e\	.	.	.
.	.	.	.	.	.	4d\	.	.	.
=75	=75	=75	=75	=75	=75	=75	=75	=75	=75
2F\]	.	2c\]	.	1A	per	1c	.	0r	.
4E\	.	2F/	om-	.	.	.	.	.	.
4D\	.	.	.	.	.	.	.	.	.
1C	-ta	2.G/	-ni-	1c	quem	1e	om-	.	.
.	.	4A/	.	.	.	.	.	.	.
=76	=76	=76	=76	=76	=76	=76	=76	=76	=76
1BB-	sunt.	2.B-\	.	0d	om-	2d\	.	0r	.
.	.	.	.	.	.	1f	.	.	.
.	.	4c\	.	.	.	.	.	.	.
2r	.	4d\	.	.	.	.	.	.	.
.	.	4e\	.	.	.	.	.	.	.
2D\	Qui	2f\	.	.	.	[2d\	.	.	.
=77	=77	=77	=77	=77	=77	=77	=77	=77	=77
1E-i	.	1g	.	1G	-ni-	2d\]	.	0r	.
.	.	.	.	.	.	2c\	-ni-	.	.
1D	.	2f\	-a	1A	-a	2d\	-a	.	.
.	.	[2d\	fac-	.	.	[2f\	fac-	.	.
=78	=78	=78	=78	=78	=78	=78	=78	=78	=78
2r	.	2d\]	.	0B-	fac-	2f\]	.	0r	.
2D\	pro-	2f\	.	.	.	2d\	.	.	.
2E-i\	.	2B-\	.	.	.	1g	.	.	.
[2D\	.	[2d\	.	.	.	.	.	.	.
=79	=79	=79	=79	=79	=79	=79	=79	=79	=79
2D\]	.	2d\]	.	0A	-ta	2f\	.	0r	.
2C/	.	2e-i\	.	.	.	1g	.	.	.
1D	-pter	1d	-ta	.	.	.	.	.	.
.	.	.	.	.	.	2f#i\	-ta	.	.
=80	=80	=80	=80	=80	=80	=80	=80	=80	=80
2r	.	0d	sunt.	0G	sunt.	1g	sunt.	0r	.
1G	nos	.	.	.	.	.	.	.	.
.	.	.	.	.	.	1r	.	.	.
2A\	.	.	.	.	.	.	.	.	.
=81	=81	=81	=81	=81	=81	=81	=81	=81	=81
1B-	.	0r	.	0r	.	2.f\	Qui	1dd	Qui
.	.	.	.	.	.	4d\	.	.	.
1A	.	.	.	.	.	4f\	.	1cc	pro-
.	.	.	.	.	.	4g\	.	.	.
.	.	.	.	.	.	[2a\	pro-	.	.
=82	=82	=82	=82	=82	=82	=82	=82	=82	=82
2B-\	ho-	1r	.	0r	.	2a\]	.	1dd	-pter
2B-\	-mi-	.	.	.	.	2g\	-pter	.	.
1A	-nes,	1c	Qui	.	.	2r	.	1ee	nos
.	.	.	.	.	.	[2a\	nos	.	.
=83	=83	=83	=83	=83	=83	=83	=83	=83	=83
2r	.	1.d	pro-	0r	.	2a\]	.	[0ff	ho-
1B-	et	.	.	.	.	2f\	.	.	.
.	.	.	.	.	.	2d\	.	.	.
2A\	.	2c\	-pter	.	.	[2a\	.	.	.
=84	=84	=84	=84	=84	=84	=84	=84	=84	=84
2F\	pro-	1d	nos	0r	.	2a\]	.	1ff]	.
2D\	.	.	.	.	.	1a	ho-	.	.
1A	-pter	2c\	ho-	.	.	.	.	1ee	-mi-
.	.	2c\	-mi-	.	.	2a\	-mi-	.	.
=85	=85	=85	=85	=85	=85	=85	=85	=85	=85
2r	.	1G	-nes,	0r	.	2b-\	-nes,	0dd	-nes,
1B-	no-	.	.	.	.	4a\	.	.	.
.	.	.	.	.	.	4g\	.	.	.
.	.	2r	.	.	.	2f\	.	.	.
4A\	.	2B-\	et	.	.	2g\	et	.	.
4G\	.	.	.	.	.	.	.	.	.
=86	=86	=86	=86	=86	=86	=86	=86	=86	=86
2F\	.	2A/	pro-	0d	et	2a\	pro-	0r	.
2G\	.	2B-\	.	.	.	2d\	-pter	.	.
1D	-stram	1A	-pter	.	.	1r	.	.	.
=87	=87	=87	=87	=87	=87	=87	=87	=87	=87
1r	.	1G	no-	1d	pro-	2r	.	0r	.
.	.	.	.	.	.	1g	no-	.	.
2r	.	1G	-stram	1d	-pter	.	.	.	.
[2G\	sa-	.	.	.	.	4f\	-stram	.	.
.	.	.	.	.	.	4e\	.	.	.
=88	=88	=88	=88	=88	=88	=88	=88	=88	=88
2G\]	.	2B-\	sa-	0d	no-	2d\	sa-	0r	.
4F\	.	4A/	.	.	.	2g\	-lu-	.	.
4E\	.	4G/	.	.	.	.	.	.	.
2D\	-lu-	2A/	.	.	.	1f	-tem	.	.
2BB-/	.	[2B-\	-lu-	.	.	.	.	.	.
=89	=89	=89	=89	=89	=89	=89	=89	=89	=89
1E-i	-tem	2B-\]	.	1G	-stram	2r	.	0r	.
.	.	4A/	.	.	.	1c	de-	.	.
.	.	4G/	.	.	.	.	.	.	.
2r	.	1F	-tem	1A	sa-	.	.	.	.
[2D\	de-	.	.	.	.	[2f\	.	.	.
=90	=90	=90	=90	=90	=90	=90	=90	=90	=90
2D\]	.	1r	.	0B-	-lu-	2f\]	.	0r	.
2C/	.	.	.	.	.	2.g\	-scen-	.	.
1BB-	.	1G	de-	.	.	.	.	.	.
.	.	.	.	.	.	4f\	.	.	.
.	.	.	.	.	.	4e\	.	.	.
.	.	.	.	.	.	4d\	.	.	.
=91	=91	=91	=91	=91	=91	=91	=91	=91	=91
2.AA/	-scen-	1A	-scen-	0c	-tem	2f\	.	1r	.
.	.	.	.	.	.	2.e\	.	.	.
4BB-/	.	.	.	.	.	.	.	.	.
2C/	.	2G/	.	.	.	.	.	1cc	de-
.	.	.	.	.	.	4c\	.	.	.
2AA/	.	2A/	.	.	.	2e\	.	.	.
=92	=92	=92	=92	=92	=92	=92	=92	=92	=92
2.BB-/	.	2F/	.	0r	.	2d\	-dit	1.dd	-scen-
.	.	2B-\	.	.	.	2.f\	de-	.	.
4C/	.	.	.	.	.	.	.	.	.
4D\	.	1A	-dit	.	.	.	.	.	.
4E\	.	.	.	.	.	4g\	.	.	.
2F\	.	.	.	.	.	2a\	.	2cc\	.
=93	=93	=93	=93	=93	=93	=93	=93	=93	=93
1G	.	2r	.	0r	.	1d	-cae-	1b-	-dit
.	.	2G/	de-	.	.	.	.	.	.
1F	-dit	1c	-cae-	.	.	2f\	.	1a	de-
.	.	.	.	.	.	4e\	.	.	.
.	.	.	.	.	.	4d\	.	.	.
=94	=94	=94	=94	=94	=94	=94	=94	=94	=94
2r	.	1A	-lis,	0r	.	2c\	.	4a/	-cae-
.	.	.	.	.	.	.	.	4g/	.
2D\	de-	.	.	.	.	2d\	.	4f/	.
.	.	.	.	.	.	.	.	4e/	.
2G\	-cae-	2r	.	.	.	2B-\	.	2d/	.
2F\	.	2c\	de-	.	.	[2f\	.	[2a/	.
=95	=95	=95	=95	=95	=95	=95	=95	=95	=95
2D\	.	2d\	.	0r	.	2f\]	.	4a/]	.
.	.	.	.	.	.	.	.	4b-\	.
2C/	.	2e\	.	.	.	2.g\	.	2cc\	.
2G\	.	2.d\	-cae-	.	.	.	.	2b-\	.
.	.	.	.	.	.	4d\	.	.	.
2F\	.	.	.	.	.	[2f\	.	[2a/	.
.	.	4c\	.	.	.	.	.	.	.
=96	=96	=96	=96	=96	=96	=96	=96	=96	=96
2D\	.	2d\	.	0r	.	2f\]	.	4a/]	.
.	.	.	.	.	.	.	.	4g/	.
2E\	.	2G/	.	.	.	2c\	.	1g	.
1D	.	1A	.	.	.	2d\	.	.	.
.	.	.	.	.	.	2f\	.	2f#i/	.
=97	=97	=97	=97	=97	=97	=97	=97	=97	=97
0G\l	-lis.	0G/l	-lis.	0G/l	lis.	2e\	.	0g/l	-lis.
.	.	.	.	.	.	1.d\l	-lis.	.	.
!!LO:LB:i:g=z
=98||	=98||	=98||	=98||	=98||	=98||	=98||	=98||	=98||	=98||
*>B	*>B	*>B	*>B	*>B	*>B	*>B	*>B	*>B	*>B
*clefF4	*	*clefGv2	*	*clefGv2	*	*clefGv2	*	*clefG2	*
*k[b-]	*	*k[b-]	*	*k[b-]	*	*k[b-]	*	*k[b-]	*
*M2/1	*	*M2/1	*	*M2/1	*	*M2/1	*	*M2/1	*
*met(C|)	*	*met(C|)	*	*met(C|)	*	*met(C|)	*	*met(C|)	*
!!section: Et incarnatus est
!!!OMD: Et incarnatus est
0G	Et	1.d	Et	0r	.	0r	.	0r	.
.	.	4c\	.	.	.	.	.	.	.
.	.	4B-\	.	.	.	.	.	.	.
=99	=99	=99	=99	=99	=99	=99	=99	=99	=99
1F	in-	2A/	.	0r	.	1r	.	0r	.
.	.	2A/	in-	.	.	.	.	.	.
1G	-car-	1B-	-car-	.	.	[1d	Et	.	.
=100	=100	=100	=100	=100	=100	=100	=100	=100	=100
1F	-na-	1A	-na-	1r	.	1d]	.	0r	.
1E	.	1G	.	1g	Et	1c	in-	.	.
=101	=101	=101	=101	=101	=101	=101	=101	=101	=101
1D	-tus	2A/	.	1f	in-	1d	-car-	0r	.
.	.	2B-\	-tus	.	.	.	.	.	.
1E	.	1G	est	1g	-car-	2c\	-na-	.	.
.	.	.	.	.	.	2B-\	.	.	.
=102	=102	=102	=102	=102	=102	=102	=102	=102	=102
2r	.	1r	.	1f	-na-	2A/	.	0r	.
2D\	est	.	.	.	.	1d	.	.	.
1A	.	2r	.	1e	-tus	.	.	.	.
.	.	2A/	de	.	.	2c\	.	.	.
=103	=103	=103	=103	=103	=103	=103	=103	=103	=103
2r	.	2B-\	Spi-	1d	est	1d	-tus	0r	.
1B-	de	1d	.	.	.	.	.	.	.
.	.	.	.	1r	.	1f	.	.	.
2A\	Spi-	2c\	-ri-	.	.	.	.	.	.
=104	=104	=104	=104	=104	=104	=104	=104	=104	=104
2G\	-ri-	2B-\	-tu	1d	de	1g	est	0r	.
1B-	-tu	1d	sanc-	.	.	.	.	.	.
.	.	.	.	1f	Spi-	1d	.	.	.
2BB-/	sanc-	[2B-\	.	.	.	.	.	.	.
=105	=105	=105	=105	=105	=105	=105	=105	=105	=105
1C	.	2B-\]	.	1e	-ri-	0r	.	0r	.
.	.	2A/	.	.	.	.	.	.	.
1BB-	.	2B-\	.	1d	-tu	.	.	.	.
.	.	[2d\	.	.	.	.	.	.	.
=106	=106	=106	=106	=106	=106	=106	=106	=106	=106
0D	-to,	2d\]	.	0f	sanc-	1d	de	0r	.
.	.	4c\	.	.	.	.	.	.	.
.	.	4B-\	.	.	.	.	.	.	.
.	.	1A	.	.	.	2d\	Spi-	.	.
.	.	.	.	.	.	2d\	-ri-	.	.
=107	=107	=107	=107	=107	=107	=107	=107	=107	=107
1r	.	0G	-to,	0g	-to,	2e\	-tu	0r	.
.	.	.	.	.	.	1d	sanc-	.	.
1E-i	ex	.	.	.	.	.	.	.	.
.	.	.	.	.	.	2c\	-to,	.	.
=108	=108	=108	=108	=108	=108	=108	=108	=108	=108
1D	Ma-	1A	.	0r	.	4d\	ex	0ff	ex
.	.	.	.	.	.	4e\	.	.	.
.	.	.	.	.	.	4f\	.	.	.
.	.	.	.	.	.	4g\	.	.	.
2.F\	.	1r	.	.	.	1a	.	.	.
4G\	.	.	.	.	.	.	.	.	.
=109	=109	=109	=109	=109	=109	=109	=109	=109	=109
1A	.	1c	ex	0r	.	2.a\	Ma-	1ee	Ma-
.	.	.	.	.	.	4g\	.	.	.
1B-	-ri-	1d	Ma-	.	.	1g	-ri-	1dd	-ri-
=110	=110	=110	=110	=110	=110	=110	=110	=110	=110
1F	-a	1f	-ri-	0r	.	2a\	-a	0cc	-a
.	.	.	.	.	.	2g\	.	.	.
1A	.	1c	-a	.	.	2e\	.	.	.
.	.	.	.	.	.	2f\	.	.	.
=111	=111	=111	=111	=111	=111	=111	=111	=111	=111
0G	Vir-	0d	Vir-	0r	.	0g	Vir-	1b-	Vir-
.	.	.	.	.	.	.	.	1dd	-gi-
=112	=112	=112	=112	=112	=112	=112	=112	=112	=112
0A	-gi-	1A	.	0r	.	1e	.	[0cc	-ne,
.	.	2F/	.	.	.	2f\	.	.	.
.	.	[2c\	.	.	.	2e\	.	.	.
=113	=113	=113	=113	=113	=113	=113	=113	=113	=113
0F	-ne,	2c\]	.	1.f	et	0a	.	0cc]	.
.	.	2A/	-gi-	.	.	.	.	.	.
.	.	1A	-ne,	.	.	.	.	.	.
.	.	.	.	2c\	.	.	.	.	.
=114	=114	=114	=114	=114	=114	=114	=114	=114	=114
1r	.	2.G/	.	1g	ho-	0d	-gi-	0dd	et
.	.	4A/	.	.	.	.	.	.	.
1BB-	et	1B-	.	1f	-mo	.	.	.	.
=115	=115	=115	=115	=115	=115	=115	=115	=115	=115
1C	ho-	2r	.	1e	fac-	1g	-ne,	1cc	ho-
.	.	1G	et	.	.	.	.	.	.
1BB-	-mo	.	.	1d	.	2r	.	1dd	-mo
.	.	2G/	ho-	.	.	2G/	et	.	.
=116	=116	=116	=116	=116	=116	=116	=116	=116	=116
1AA	fac-	1A	-mo	1e	.	1c	ho-	1cc	fac-
1BB-	.	1F	fac-	[1d	.	1d	-mo	1b-	-tus
=117	=117	=117	=117	=117	=117	=117	=117	=117	=117
0D	-tus	0F	-tus	1d]	.	0f	fac-	[0a;/l	est.
.	.	.	.	1d	-tus	.	.	.	.
=118	=118	=118	=118	=118	=118	=118	=118	=118	=118
[0AA;l	est.	1r	.	[0c;l	est.	1.e	.	0a_	.
.	.	1A	est.	.	.	.	.	.	.
.	.	.	.	.	.	2A/	-tus	.	.
=119	=119	=119	=119	=119	=119	=119	=119	=119	=119
*	*	*	*	*	*	*^	*	*	*
0AA]	.	0E;l	.	0c]	.	0A;l\	0e;l/	est.	0a]	.
*	*	*	*	*	*	*v	*v	*	*	*
!!LO:LB:i:g=z
=120||	=120||	=120||	=120||	=120||	=120||	=120||	=120||	=120||	=120||
*>C	*>C	*>C	*>C	*>C	*>C	*>C	*>C	*>C	*>C
*clefF4	*	*clefGv2	*	*clefGv2	*	*clefGv2	*	*clefG2	*
*k[b-]	*	*k[b-]	*	*k[b-]	*	*k[b-]	*	*k[b-]	*
*M2/1	*	*M2/1	*	*M2/1	*	*M2/1	*	*M2/1	*
*met(C|)	*	*met(C|)	*	*met(C|)	*	*met(C|)	*	*met(C|)	*
!!section: Crucifixus
!!!OMD: Crucifixus
0r	.	0r	.	0r	.	0A	Cru-	0r	.
=121	=121	=121	=121	=121	=121	=121	=121	=121	=121
0C	Cru-	0r	.	0r	.	1G	-ci-	0r	.
.	.	.	.	.	.	1A	-fi-	.	.
=122	=122	=122	=122	=122	=122	=122	=122	=122	=122
1BB-	-ci-	0G	Cru-	0r	.	1B-	-xus	0r	.
1C	-fi-	.	.	.	.	1e-i	.	.	.
=123	=123	=123	=123	=123	=123	=123	=123	=123	=123
2D\	.	1F	-ci-	0r	.	2d\	.	1r	.
2F\	.	.	.	.	.	1d	.	.	.
1E	.	1G	-fi-	.	.	.	.	[1g	Cru-
.	.	.	.	.	.	2c\	.	.	.
=124	=124	=124	=124	=124	=124	=124	=124	=124	=124
0D	-xus	0A	-xus	0r	.	0d	.	1g]	.
.	.	.	.	.	.	.	.	1f	-ci-
=125	=125	=125	=125	=125	=125	=125	=125	=125	=125
1G	et-	0G	.	0r	.	1d	et-	0g	-fi-
1E	-i-	.	.	.	.	1c	-i-	.	.
=126	=126	=126	=126	=126	=126	=126	=126	=126	=126
1D	-am	1d	et-	0r	.	1d	-am	0a	-xus
1A	pro	1c	-i-	.	.	1e	.	.	.
=127	=127	=127	=127	=127	=127	=127	=127	=127	=127
1B-	no-	1d	-am	1d	et-	2r	.	0r	.
.	.	.	.	.	.	2.f\	pro	.	.
1A	.	1r	.	1c	-i-	.	.	.	.
.	.	.	.	.	.	4g\	.	.	.
.	.	.	.	.	.	[2a\	no-	.	.
=128	=128	=128	=128	=128	=128	=128	=128	=128	=128
1B-	-bis,	1r	.	1d	-am	2a\]	.	0r	.
.	.	.	.	.	.	2g\	.	.	.
1A	.	1c	pro	1e	pro	1a	-bis,	.	.
=129	=129	=129	=129	=129	=129	=129	=129	=129	=129
0r	.	0d	no-	0f	no-	2r	.	0r	.
.	.	.	.	.	.	1b-	sub	.	.
.	.	.	.	.	.	[2a\	Pon-	.	.
=130	=130	=130	=130	=130	=130	=130	=130	=130	=130
2A\	sub	1c	-bis,	0e	.	2a\]	.	0r	.
2.c\	Pon-	.	.	.	.	1g	.	.	.
.	.	2r	.	.	.	.	.	.	.
4B-\	.	.	.	.	.	.	.	.	.
4A\	.	[2c\	sub	.	.	[2a\	.	.	.
4G\	.	.	.	.	.	.	.	.	.
=131	=131	=131	=131	=131	=131	=131	=131	=131	=131
2F\	.	2c\]	.	0d	-bis,	2a\]	.	0r	.
2G\	-ti-	2B-\	.	.	.	1g	.	.	.
1D	-o	1A	.	.	.	.	.	.	.
.	.	.	.	.	.	2f#i\	-ti-	.	.
=132	=132	=132	=132	=132	=132	=132	=132	=132	=132
2r	.	2.G/	Pon-	0r	.	1g	-o	0dd	sub
2.G\	Pi-	.	.	.	.	.	.	.	.
.	.	4A/	.	.	.	.	.	.	.
.	.	4B-\	.	.	.	2r	.	.	.
4F\	.	4c\	.	.	.	.	.	.	.
2D\	.	2d\	.	.	.	2f\	Pi-	.	.
=133	=133	=133	=133	=133	=133	=133	=133	=133	=133
2E\	-la-	2B-\	.	0r	.	4g\	-la-	1g	Pon-
.	.	.	.	.	.	4f\	.	.	.
2C/	.	2c\	-ti-	.	.	4e\	.	.	.
.	.	.	.	.	.	4d\	.	.	.
2F\	.	2A/	-o	.	.	2c\	.	1a	-ti-
2D\	.	2d\	Pi-	.	.	2f\	.	.	.
=134	=134	=134	=134	=134	=134	=134	=134	=134	=134
1G	.	2B-\	-la-	0r	.	2d\	.	1b-	-o
.	.	2.e-i\	.	.	.	2.g\	.	.	.
1C	-to	.	.	.	.	.	.	1cc	Pi-
.	.	4d\	.	.	.	4f\	.	.	.
.	.	2c\	.	.	.	[2e-\	.	.	.
=135	=135	=135	=135	=135	=135	=135	=135	=135	=135
0E-	pas-	2.G/	.	0r	.	2e-\]	.	2.b-\	-la-
.	.	.	.	.	.	1d	.	.	.
.	.	4A/	.	.	.	.	.	4a/	.
.	.	2B-\	.	.	.	.	.	1g	.
.	.	2G/	.	.	.	2c\	.	.	.
=136	=136	=136	=136	=136	=136	=136	=136	=136	=136
0D	-sus	1A	-to	0r	.	0d	-to	0f	-to
.	.	1r	.	.	.	.	.	.	.
=137	=137	=137	=137	=137	=137	=137	=137	=137	=137
1BB-	et	1d	pas-	0r	.	2r	.	1b-	pas-
.	.	.	.	.	.	1f	pas-	.	.
1F	se-	2c\	.	.	.	.	.	1a	-sus
.	.	2A/	.	.	.	[2d\	-sus	.	.
=138	=138	=138	=138	=138	=138	=138	=138	=138	=138
1G	-pul-	2G/	.	0r	.	2d\]	.	1b-	et
.	.	2B-\	.	.	.	1e	et	.	.
1C	.	1c	-sus	.	.	.	.	1g	se-
.	.	.	.	.	.	[2c\	se-	.	.
=139	=139	=139	=139	=139	=139	=139	=139	=139	=139
1F	.	1A	et	0r	.	2c\]	.	1a	-pul-
.	.	.	.	.	.	1d	-pul-	.	.
1D	.	1d	se-	.	.	.	.	1f	-tus
.	.	.	.	.	.	[2B-\	.	.	.
=140	=140	=140	=140	=140	=140	=140	=140	=140	=140
1E	.	2G/	-pul-	0r	.	2B-\]	.	0g	est.
.	.	2.g\	.	.	.	1c	.	.	.
2C/	.	.	.	.	.	.	.	.	.
.	.	4f\	.	.	.	.	.	.	.
[2G\	.	[2e\	.	.	.	[2B-\	.	.	.
=141	=141	=141	=141	=141	=141	=141	=141	=141	=141
4G\]	.	4e\]	.	0g	Et	4B-\]	.	0r	.
4F\	.	4d\	.	.	.	4A/	.	.	.
4E\	.	4c#i\	.	.	.	4G/	.	.	.
4D\	.	4Bni\	.	.	.	4F/	.	.	.
1E	-tus	1c#i	.	.	.	1G	-tus	.	.
=142	=142	=142	=142	=142	=142	=142	=142	=142	=142
0D	est.	2.d\	.	1f	re-	1A	est.	0r	.
.	.	4c\	.	.	.	.	.	.	.
.	.	2B-\	.	1d	-sur-	1r	.	.	.
.	.	2A/	.	.	.	.	.	.	.
=143	=143	=143	=143	=143	=143	=143	=143	=143	=143
0D	Et	2d\	.	0f	-re-	1r	.	0r	.
.	.	4c\	.	.	.	.	.	.	.
.	.	4B-\	.	.	.	.	.	.	.
.	.	1A	-tus	.	.	1d	Et	.	.
=144	=144	=144	=144	=144	=144	=144	=144	=144	=144
1d	re-	[0G	est.	0g	-xit	1B-	re-	0r	.
2e-i\	-sur-	.	.	.	.	2c\	-sur-	.	.
[2d\	-re-	.	.	.	.	[2B-\	-re-	.	.
=145	=145	=145	=145	=145	=145	=145	=145	=145	=145
2d\]	.	1G]	.	0g	ter-	2B-\]	.	0r	.
2c\	.	.	.	.	.	2e-i\	.	.	.
2B-\	.	1r	.	.	.	2.d\	.	.	.
4A\	.	.	.	.	.	.	.	.	.
4G\	.	.	.	.	.	4eni\	.	.	.
=146	=146	=146	=146	=146	=146	=146	=146	=146	=146
2F\	.	2c\	Et	1a	-ti-	1f	-xit	0r	.
2D\	.	2d\	re-	.	.	.	.	.	.
2E-i\	.	2B-\	-sur-	[1g	-a	2r	.	.	.
[2C/	.	[2c\	-re-	.	.	[2e-\	ter-	.	.
=147	=147	=147	=147	=147	=147	=147	=147	=147	=147
2C/]	.	4c\]	.	1g]	.	2e-\]	.	0r	.
.	.	4B-\	.	.	.	.	.	.	.
2E-i\	-xit	2G/	-xit	.	.	2c\	-ti-	.	.
2D\	ter-	2A/	ter-	1f	di-	1d	-a	.	.
2BB-/	-ti-	2B-\	-ti-	.	.	.	.	.	.
=148	=148	=148	=148	=148	=148	=148	=148	=148	=148
2C/	-a	2G/	-a	0e	-e,	2r	.	0r	.
1AA	di-	2.A/	di-	.	.	1c	di-	.	.
.	.	4G/	.	.	.	.	.	.	.
2C/	.	2E/	.	.	.	2A/	.	.	.
=149	=149	=149	=149	=149	=149	=149	=149	=149	=149
2BB-/	.	1F	.	0d	.	1B-	-e,	0r	.
2.D\	.	.	.	.	.	.	.	.	.
.	.	1D	-e,	.	.	2.f\	se-	.	.
4E\	.	.	.	.	.	.	.	.	.
[2F\	-e,	.	.	.	.	.	.	.	.
.	.	.	.	.	.	4g\	.	.	.
=150	=150	=150	=150	=150	=150	=150	=150	=150	=150
4F\]	.	2r	.	0r	.	2a\	-cun-	1cc	se-
4G\	.	.	.	.	.	.	.	.	.
2A\	se-	2F/	se-	.	.	1f	-dum	.	.
2B-\	-cun-	2D/	-cun-	.	.	.	.	1dd	-cun-
2G\	-dum	[2G/	-dum	.	.	2g\	Scrip-	.	.
=151	=151	=151	=151	=151	=151	=151	=151	=151	=151
1A	Scrip-	2G/]	.	0r	.	2e\	-tu-	1cc	-dum
.	.	2F/	Scrip-	.	.	2f\	.	.	.
1G	-tu-	2G/	.	.	.	2d\	.	1b-	Scrip-
.	.	[2d\	-tu-	.	.	[2g\	.	.	.
=152	=152	=152	=152	=152	=152	=152	=152	=152	=152
0D	-ras,	2d\]	.	0r	.	2g\]	.	0a	-tu-
.	.	4c\	.	.	.	4f\	.	.	.
.	.	4B-\	.	.	.	4e\	.	.	.
.	.	1d	-ras,	.	.	2g\	.	.	.
.	.	.	.	.	.	2f#i\	.	.	.
=153	=153	=153	=153	=153	=153	=153	=153	=153	=153
2r	.	1r	.	0r	.	1g	-ras,	0g	-ras,
2.G\	Et	.	.	.	.	.	.	.	.
.	.	2.G/	Et	.	.	1r	.	.	.
4F\	.	.	.	.	.	.	.	.	.
[2E-\	.	.	.	.	.	.	.	.	.
.	.	4A/	a-	.	.	.	.	.	.
=154	=154	=154	=154	=154	=154	=154	=154	=154	=154
2E-\]	.	2B-\	-scen-	1G	Et	0r	.	0r	.
2C/	.	1c	-dit	.	.	.	.	.	.
1F	a-	.	.	1A	a-	.	.	.	.
.	.	[2d\	in	.	.	.	.	.	.
=155	=155	=155	=155	=155	=155	=155	=155	=155	=155
1G	-scen-	2d\]	.	1B-	.	0r	.	0r	.
.	.	1e-i	ce-	.	.	.	.	.	.
1C	-dit	.	.	1c	-scen-	.	.	.	.
.	.	[2c\	.	.	.	.	.	.	.
=156	=156	=156	=156	=156	=156	=156	=156	=156	=156
1G	.	2c\]	.	1d	-dit	2r	.	0r	.
.	.	2Bni\	.	.	.	2d\	se-	.	.
1C	in	1c	-lum,	2r	.	2.e\	-det	.	.
.	.	.	.	[2c\	in	.	.	.	.
.	.	.	.	.	.	4f\	.	.	.
=157	=157	=157	=157	=157	=157	=157	=157	=157	=157
1G	.	0r	.	2c\]	.	2e\	.	0r	.
.	.	.	.	2B-\	ce-	2d\	.	.	.
2r	.	.	.	1c	-lum,	1e	ad	.	.
2A\	ce-	.	.	.	.	.	.	.	.
=158	=158	=158	=158	=158	=158	=158	=158	=158	=158
1B-	-lum,	2G/	se-	1d	.	2.d\	dex-	1r	.
.	.	1B-	.	.	.	.	.	.	.
.	.	.	.	.	.	4e\	.	.	.
1r	.	.	.	1r	.	2f\	.	2r	.
.	.	2G/	.	.	.	[2g\	.	2dd\	se-
=159	=159	=159	=159	=159	=159	=159	=159	=159	=159
0r	.	2c\	-det	0r	.	4g\]	.	2ee\	-det
.	.	.	.	.	.	4f\	.	.	.
.	.	2B-\	ad	.	.	2d\	.	2ff\	ad
.	.	2c\	dex-	.	.	2c\	.	2ee\	dex-
.	.	2B-\	-te-	.	.	[2d\	-te-	2dd\	-te-
=160	=160	=160	=160	=160	=160	=160	=160	=160	=160
2.A\	Pa-	1A	-ram	0r	.	2d\]	.	1ee	-ram
.	.	.	.	.	.	2c\	-ram	.	.
4G\	.	.	.	.	.	.	.	.	.
4A\	.	1r	.	.	.	2f\	Pa-	2.cc\	Pa-
4B-\	.	.	.	.	.	.	.	.	.
[2c\	.	.	.	.	.	2e\	.	.	.
.	.	.	.	.	.	.	.	4dd\	.
=161	=161	=161	=161	=161	=161	=161	=161	=161	=161
2c\]	.	2c\	Pa-	0r	.	2g\	.	2ee\	.
2F\	.	2A/	.	.	.	2a\	.	2ff\	.
2G\	.	2B-\	.	.	.	[1g	.	2dd\	.
[2C/	.	[2c\	.	.	.	.	.	[2ee\	.
=162	=162	=162	=162	=162	=162	=162	=162	=162	=162
2C/]	.	2c\]	.	0r	.	2g\]	.	4ee\]	.
.	.	.	.	.	.	.	.	4dd\	.
2D\	.	1A	-tris.	.	.	2f\	.	1dd	.
1AA	-tris.	.	.	.	.	1e	.	.	.
.	.	2A/	Et	.	.	.	.	2cc#i\	.
=163	=163	=163	=163	=163	=163	=163	=163	=163	=163
0r	.	1B-	.	0r	.	2d\	-tris.	0dd	-tris.
.	.	.	.	.	.	2g\	Et	.	.
.	.	2.B-\	i-	.	.	2.f\	i-	.	.
.	.	4A/	.	.	.	4e\	-te-	.	.
=164	=164	=164	=164	=164	=164	=164	=164	=164	=164
2r	.	2B-\	.	0g	Et	2d\	-rum	0r	.
2C/	i-	2c\	-te-	.	.	2c\	ven-	.	.
1E	-te-	1G	-rum	.	.	2B-\	-tu-	.	.
.	.	.	.	.	.	2c\	-rus	.	.
=165	=165	=165	=165	=165	=165	=165	=165	=165	=165
1D	-rum	2.A/	ven-	1f	i-	1d	est	0r	.
.	.	4B-\	.	.	.	.	.	.	.
1r	.	2c\	-tu-	1e	-te-	2r	.	.	.
.	.	2A/	-rus	.	.	2c\	cum	.	.
=166	=166	=166	=166	=166	=166	=166	=166	=166	=166
1r	.	1B-	est	1d	-rum	1d	glo-	0r	.
1C	cum	1G	.	1c	ven-	1e	-ri-	.	.
=167	=167	=167	=167	=167	=167	=167	=167	=167	=167
1D	glo-	2r	.	1B-	-tu-	1d	-a	0r	.
.	.	2F/	cum	.	.	.	.	.	.
1E	-ri-	2.G/	glo-	1c	-rus	1g	ju-	.	.
.	.	4A/	.	.	.	.	.	.	.
=168	=168	=168	=168	=168	=168	=168	=168	=168	=168
1D	-a	4B-\	.	1d	est	1f	-di-	1r	.
.	.	4c\	.	.	.	.	.	.	.
.	.	2d\	.	.	.	.	.	.	.
1r	.	2e-i\	.	1r	.	1g	-ca-	1cc	cum
.	.	2e-i\	-ri-	.	.	.	.	.	.
=169	=169	=169	=169	=169	=169	=169	=169	=169	=169
1BB-	ju-	2d\	-a	0r	.	1f	-re	1dd	glo-
.	.	1B-	.	.	.	.	.	.	.
1C	-di-	.	.	.	.	2r	.	1ee	-ri-
.	.	2A/	.	.	.	2c\	vi-	.	.
=170	=170	=170	=170	=170	=170	=170	=170	=170	=170
4BB-/	-ca-	1B-	.	0r	.	2.f\	-vos	0dd	-a
4C/	.	.	.	.	.	.	.	.	.
4D\	.	.	.	.	.	.	.	.	.
4E\	.	.	.	.	.	4g\	.	.	.
2F\	.	2A/	.	.	.	2a\	.	.	.
[2G\	.	2B-\	.	.	.	2d\	.	.	.
=171	=171	=171	=171	=171	=171	=171	=171	=171	=171
4G\]	.	1G	.	1d	ju-	2.g\	.	0r	.
4A\	.	.	.	.	.	.	.	.	.
1B-	.	.	.	.	.	.	.	.	.
.	.	.	.	.	.	4f\	.	.	.
.	.	1r	.	1c	-di-	2g\	.	.	.
2A\	.	.	.	.	.	2a\	.	.	.
=172	=172	=172	=172	=172	=172	=172	=172	=172	=172
1B-	-re	2.B-\	ju-	1.d	-ca-	2f\	et	0r	.
.	.	.	.	.	.	1b-	mor-	.	.
.	.	4c\	.	.	.	.	.	.	.
2.BB-/	vi-	4d\	.	.	.	.	.	.	.
.	.	4e\	.	.	.	.	.	.	.
.	.	[2f\	.	4c\	.	4a\	.	.	.
4C/	.	.	.	4B-\	.	4g\	.	.	.
=173	=173	=173	=173	=173	=173	=173	=173	=173	=173
2D\	.	2f\]	.	0A	-re	2f\	.	0r	.
2C/	.	2e\	-di-	.	.	1g	.	.	.
1D	.	[1d	-ca-	.	.	.	.	.	.
.	.	.	.	.	.	2f#i\	-tu-	.	.
=174	=174	=174	=174	=174	=174	=174	=174	=174	=174
0E-i	.	2d\]	.	0r	.	1g	-os,	0g	vi-
.	.	4c\	.	.	.	.	.	.	.
.	.	4B-\	.	.	.	.	.	.	.
.	.	1c	.	.	.	1G	.	.	.
=175	=175	=175	=175	=175	=175	=175	=175	=175	=175
1D	-vos	1d	-re	0r	.	2A/	.	0f	-vos
.	.	.	.	.	.	2B-\	.	.	.
2r	.	2.f\	vi-	.	.	2A/	.	.	.
[2D\	et	.	.	.	.	2d\	.	.	.
.	.	4e\	.	.	.	.	.	.	.
=176	=176	=176	=176	=176	=176	=176	=176	=176	=176
2D\]	.	2d\	.	0r	.	1f	.	1a	et
2.F\	mor-	1c	-vos	.	.	.	.	.	.
.	.	.	.	.	.	2r	.	[1cc	mor-
4E\	.	.	.	.	.	.	.	.	.
2C/	.	2c\	et	.	.	2e\	cu-	.	.
=177	=177	=177	=177	=177	=177	=177	=177	=177	=177
1F	-tu-	1A	mor-	0r	.	2c\	.	1cc]	.
.	.	.	.	.	.	1f	.	.	.
1BB-	-os,	1B-	-tu-	.	.	.	.	1dd	-tu-
.	.	.	.	.	.	2d\	.	.	.
=178	=178	=178	=178	=178	=178	=178	=178	=178	=178
0r	.	0A	-os,	0r	.	2a\	.	0cc	-os,
.	.	.	.	.	.	4g\	.	.	.
.	.	.	.	.	.	4f\	.	.	.
.	.	.	.	.	.	2e\	-jus	.	.
.	.	.	.	.	.	[2f\	re-	.	.
=179	=179	=179	=179	=179	=179	=179	=179	=179	=179
2B-\	cu-	0r	.	0r	.	2f\]	.	0dd	.
4A\	.	.	.	.	.	2g\	.	.	.
4G\	.	.	.	.	.	.	.	.	.
2F\	-jus	.	.	.	.	2a\	.	.	.
[2G\	re-	.	.	.	.	[2d\	.	.	.
=180	=180	=180	=180	=180	=180	=180	=180	=180	=180
2G\]	.	0r	.	1d	cu-	2d\]	.	0r	.
2B-\	.	.	.	.	.	1g	.	.	.
1A	.	.	.	1c	-jus	.	.	.	.
.	.	.	.	.	.	2f#i\	.	.	.
=181	=181	=181	=181	=181	=181	=181	=181	=181	=181
2G\	-gni	1d	cu-	1d	re-	1g	-gni	0r	.
2B-\	non	.	.	.	.	.	.	.	.
1A	e-	1c	-jus	1e	-gni	2r	.	.	.
.	.	.	.	.	.	2c\	non	.	.
=182	=182	=182	=182	=182	=182	=182	=182	=182	=182
1D	-rit	1d	re-	1f	non	2A/	e-	1a	cu-
.	.	.	.	.	.	1d	.	.	.
1r	.	1e	-gni	1e	e-	.	.	1g	-jus
.	.	.	.	.	.	2c\	.	.	.
=183	=183	=183	=183	=183	=183	=183	=183	=183	=183
1r	.	1f	non	1d	-rit	1d	.	1a	re-
1G	fi-	1d	e-	[1g	fi-	1B-	-rit	1b-	-gni
=184	=184	=184	=184	=184	=184	=184	=184	=184	=184
2C/	.	2e\	-rit	2g\]	.	2r	.	1.cc	non
2F\	.	1c	fi-	2f\	.	2A/	fi-	.	.
2C/	.	.	.	2e\	.	2G/	.	.	.
2G\	.	[2d\	.	2d\	.	2B-\	.	2b-\	.
=185	=185	=185	=185	=185	=185	=185	=185	=185	=185
2F\	.	2d\]	.	2f\	.	2c\	.	2a/	e-
2C/	.	2c\	.	2e\	.	2.g\	.	2g/	.
1G	.	1d	-nis,	[1d	.	.	.	1b-	-rit
.	.	.	.	.	.	4f\	.	.	.
.	.	.	.	.	.	2d\	.	.	.
=186	=186	=186	=186	=186	=186	=186	=186	=186	=186
1F	.	1r	.	2d\]	.	1f	.	2.a/	fi-
.	.	.	.	2c\	.	.	.	.	.
.	.	.	.	.	.	.	.	4g/	.
1E	.	1G	fi-	1c	.	1g	-nis,	[1g	.
=187	=187	=187	=187	=187	=187	=187	=187	=187	=187
0D	.	0A	.	[0d\l	-nis.	1r	.	1g]	.
.	.	.	.	.	.	[1d	fi-	1f#i	.
=188	=188	=188	=188	=188	=188	=188	=188	=188	=188
0G\l	-nis.	0G/l	-nis.	0d]	.	1d]	.	0g/l	-nis.
.	.	.	.	.	.	1B-\l	-nis.	.	.
!!LO:LB:i:g=z
=189||	=189||	=189||	=189||	=189||	=189||	=189||	=189||	=189||	=189||
*>D	*>D	*>D	*>D	*>D	*>D	*>D	*>D	*>D	*>D
*clefF4	*	*clefGv2	*	*clefGv2	*	*clefGv2	*	*clefG2	*
*k[b-]	*	*k[b-]	*	*k[b-]	*	*k[b-]	*	*k[b-]	*
*M2/1	*	*M2/1	*	*M2/1	*	*M2/1	*	*M2/1	*
*met(C|)	*	*met(C|)	*	*met(C|)	*	*met(C|)	*	*met(C|)	*
!!section: Et in spiritum
!!!OMD: Et in spiritum
0r	.	0r	.	0r	.	0g	Et	0r	.
=190	=190	=190	=190	=190	=190	=190	=190	=190	=190
0r	.	0d	Et	0r	.	0d	in	0r	.
=191	=191	=191	=191	=191	=191	=191	=191	=191	=191
0G	Et	0G	in	0r	.	1d	Spi-	0r	.
.	.	.	.	.	.	1e	-ri-	.	.
=192	=192	=192	=192	=192	=192	=192	=192	=192	=192
0D	in	1A	Spi-	0r	.	0f	-tum	0dd	Et
.	.	1B-	-ri-	.	.	.	.	.	.
=193	=193	=193	=193	=193	=193	=193	=193	=193	=193
1C	Spi-	0c	-tum	0r	.	1e	.	0g	in
1C	-ri-	.	.	.	.	2r	.	.	.
.	.	.	.	.	.	[2g\	sanc-	.	.
=194	=194	=194	=194	=194	=194	=194	=194	=194	=194
1F	-tum	1c	sanc-	0r	.	2g\]	.	1a	Spi-
.	.	.	.	.	.	2f\	.	.	.
1G	sanc-	1B-	-tum	.	.	2.d\	.	1b-	-ri-
.	.	.	.	.	.	4e\	.	.	.
=195	=195	=195	=195	=195	=195	=195	=195	=195	=195
1F	-tum	2A/	Do-	0r	.	1f	-tum	0cc	-tum
.	.	2F/	.	.	.	.	.	.	.
2F\	Do-	1f	.	.	.	1a	Do-	.	.
2F\	-mi-	.	.	.	.	.	.	.	.
=196	=196	=196	=196	=196	=196	=196	=196	=196	=196
2C/	-num	2e\	.	0r	.	2g\	-mi-	0cc	sanc-
2F\	et	2d\	.	.	.	2f\	.	.	.
2G\	vi-	2c\	.	.	.	1e	-num	.	.
2A\	-vi-	2A/	.	.	.	.	.	.	.
=197	=197	=197	=197	=197	=197	=197	=197	=197	=197
2B-\	-fi-	2G/	.	0r	.	2r	.	0dd	-tum
2.d\	-can-	2.B-\	.	.	.	1f	et	.	.
4c\	.	4A/	.	.	.	.	.	.	.
2B-\	.	[2G/	.	.	.	2g\	.	.	.
=198	=198	=198	=198	=198	=198	=198	=198	=198	=198
1A	.	2G/]	.	0r	.	1a	.	1cc	Do-
.	.	2F#i/	.	.	.	.	.	.	.
1G	.	1G	.	.	.	2d\	vi-	1b-	-mi-
.	.	.	.	.	.	[2g\	-vi-	.	.
=199	=199	=199	=199	=199	=199	=199	=199	=199	=199
0D	-tem,	0d	-mi-	0r	.	2g\]	.	0a	-num
.	.	.	.	.	.	4f\	-fi-	.	.
.	.	.	.	.	.	4e\	.	.	.
.	.	.	.	.	.	4f\	-can-	.	.
.	.	.	.	.	.	4e\	.	.	.
.	.	.	.	.	.	4d\	.	.	.
.	.	.	.	.	.	4c\	.	.	.
=200	=200	=200	=200	=200	=200	=200	=200	=200	=200
1r	.	1d	-num	0G	et	2.B-\	.	0r	.
.	.	.	.	.	.	4c\	.	.	.
1BB-	qui	2r	.	.	.	1d	.	.	.
.	.	2d\	et	.	.	.	.	.	.
=201	=201	=201	=201	=201	=201	=201	=201	=201	=201
2AA/	.	2e\	vi-	0A	vi-	2c\	.	0r	.
2D\	.	2f\	-vi-	.	.	2A/	.	.	.
2C/	ex	2e\	-fi-	.	.	2c\	.	.	.
[2D\	Pa-	2d\	-can-	.	.	[2F/	-tem,	.	.
=202	=202	=202	=202	=202	=202	=202	=202	=202	=202
2D\]	.	2f\	.	1B-	-vi-	2F/]	.	0r	.
2BB-/	.	2.F/	.	.	.	2.f\	qui	.	.
1F	.	.	.	1c	-fi-	.	.	.	.
.	.	4G/	.	.	.	4e\	.	.	.
.	.	2A/	-tem,	.	.	4d\	.	.	.
.	.	.	.	.	.	4c\	.	.	.
=203	=203	=203	=203	=203	=203	=203	=203	=203	=203
1G	.	2r	.	2.B-\	-can-	2e\	ex	0r	.
.	.	2G/	qui	.	.	1d	Pa-	.	.
.	.	.	.	4A/	.	.	.	.	.
1E	.	2B-\	.	1G	.	.	.	.	.
.	.	2G/	ex	.	.	2c#i\	.	.	.
=204	=204	=204	=204	=204	=204	=204	=204	=204	=204
1D	-tre	2A/	Pa-	0F	-tem,	1d	-tre	0r	.
.	.	2B-\	.	.	.	.	.	.	.
2r	.	1A	-tre	.	.	2c\	Fi-	.	.
2D\	Fi-	.	.	.	.	2f\	.	.	.
=205	=205	=205	=205	=205	=205	=205	=205	=205	=205
2E\	-li-	2G/	Fi-	0r	.	2e\	.	1g	qui
2G\	-o-	2B-\	-li-	.	.	1d	-li-	.	.
2F\	-que	2A/	-o-	.	.	.	.	1a	ex
[2D\	.	[2d\	-que	.	.	[2f\	-o-	.	.
=206	=206	=206	=206	=206	=206	=206	=206	=206	=206
2D\]	.	4d\]	.	0r	.	2f\]	.	0b-	Pa-
.	.	4c\	.	.	.	.	.	.	.
2.E-i\	.	4B-\	.	.	.	2.g\	-que	.	.
.	.	4A/	.	.	.	.	.	.	.
.	.	2G/	.	.	.	.	.	.	.
4D\	.	.	.	.	.	4f\	.	.	.
2BB-/	.	2B-\	.	.	.	2d\	.	.	.
=207	=207	=207	=207	=207	=207	=207	=207	=207	=207
2C/	.	1F	.	0r	.	2c\	.	0a	-tre
2.D\	.	.	.	.	.	2.f\	.	.	.
.	.	2r	.	.	.	.	.	.	.
4E\	.	.	.	.	.	4e\	.	.	.
2F\	pro-	2f\	pro-	.	.	2c\	.	.	.
=208	=208	=208	=208	=208	=208	=208	=208	=208	=208
2G\	-ce-	2d\	-ce-	0r	.	2r	.	1b-	Fi-
1E-	.	2.e-i\	.	.	.	2.g\	pro-	.	.
.	.	.	.	.	.	.	.	1g	-li-
.	.	4f\	.	.	.	4f\	.	.	.
2C/	.	2g\	.	.	.	4e\	.	.	.
.	.	.	.	.	.	4d\	.	.	.
=209	=209	=209	=209	=209	=209	=209	=209	=209	=209
2F\	.	1f	.	0r	.	2c\	.	1a	-o-
2D\	.	.	.	.	.	4f\	-ce-	.	.
.	.	.	.	.	.	4e\	.	.	.
1G	.	2B-\	.	.	.	4d\	.	1b-	-que
.	.	.	.	.	.	4c\	.	.	.
.	.	[2d\	.	.	.	2B-\	.	.	.
=210	=210	=210	=210	=210	=210	=210	=210	=210	=210
2D\	.	2d\]	.	0r	.	2d\	.	1a	pro-
2F\	.	2A/	.	.	.	2c\	.	.	.
2C/	.	4c\	.	.	.	2e\	.	1g	.
.	.	4B-\	.	.	.	.	.	.	.
2E-i\	.	4A/	.	.	.	2c\	.	.	.
.	.	4G/	.	.	.	.	.	.	.
=211	=211	=211	=211	=211	=211	=211	=211	=211	=211
2.D\	.	2A/	.	0r	.	0d	-dit.	0f	-ce-
.	.	2B-\	.	.	.	.	.	.	.
4C/	.	.	.	.	.	.	.	.	.
1D	-dit.	1A	-dit.	.	.	.	.	.	.
=212	=212	=212	=212	=212	=212	=212	=212	=212	=212
*M3/1	*	*M3/1	*	*M3/1	*	*M3/1	*	*M3/1	*
*met(O)	*	*met(O)	*	*met(O)	*	*met(O)	*	*met(O)	*
*met(3)	*	*met(3)	*	*met()	*	*met(3)	*	*met()	*
!	!	!	!	!LO:N:vis=0	!	!	!	!LO:N:vis=0	!
1E-i	Qui	0G	Qui	0.r	.	1B-	Qui	0.g	-dit.
1E-i	cum	.	.	.	.	1B-	cum	.	.
1C	Pa-	1A	cum	.	.	1c	Pa-	.	.
=213	=213	=213	=213	=213	=213	=213	=213	=213	=213
1BB-	-tre	1B-	Pa-	0d	Qui	1d	-tre	0.r	.
0D	et	1A	.	.	.	1f	et	.	.
.	.	1F	.	1B-	cum	1f	Fi-	.	.
=214	=214	=214	=214	=214	=214	=214	=214	=214	=214
1C	Fi-	0G	-tre	1c	Pa-	1e	-li-	0.r	.
1BB-	.	.	.	1d	-tre	1d	-o	.	.
1C	-li-	1G	et	1e	et	1r	.	.	.
=215	=215	=215	=215	=215	=215	=215	=215	=215	=215
1BB-	-o	1B-	Fi-	0f	Fi-	1r	.	0.r	.
1D	si-	0A	-li-	.	.	1d	si-	.	.
1AA	-mul	.	.	1e	-li-	1c	-mul	.	.
=216	=216	=216	=216	=216	=216	=216	=216	=216	=216
1D	ad-	1A	-o	0.d	-o	1.d	ad-	0.r	.
1G	.	1B-	.	.	.	.	.	.	.
.	.	.	.	.	.	2e\	-o-	.	.
1F	-o-	1A	.	.	.	[1f	-ra-	.	.
=217	=217	=217	=217	=217	=217	=217	=217	=217	=217
1D	-ra-	0.r	.	0.r	.	1f]	.	1dd	si-
1A	.	.	.	.	.	1e	-tur	1cc	-mul
1B-	-tur	.	.	.	.	1d	et	1dd	ad-
=218	=218	=218	=218	=218	=218	=218	=218	=218	=218
1c	et	0.r	.	0.r	.	1g	con-	1ee	-o-
1.d	con-	.	.	.	.	1f	-glo-	0ff	-ra-
.	.	.	.	.	.	1d	-ri-	.	.
2c\	.	.	.	.	.	.	.	.	.
=219	=219	=219	=219	=219	=219	=219	=219	=219	=219
2B-\	.	1G	et	0.r	.	1.g	-fi-	0.dd	-tur
2A\	.	.	.	.	.	.	.	.	.
1.G	.	0B-	con-	.	.	.	.	.	.
.	.	.	.	.	.	2f\	.	.	.
.	.	.	.	.	.	2e\	.	.	.
2F\	.	.	.	.	.	2d\	.	.	.
=220	=220	=220	=220	=220	=220	=220	=220	=220	=220
2E\	.	1G	-glo-	0g	et	2c\	.	0.r	.
2D\	.	.	.	.	.	2B-\	.	.	.
1C	.	1c	-ri-	.	.	1e-i	.	.	.
1D	-glo-	1A	-fi-	1f	con-	1d	.	.	.
=221	=221	=221	=221	=221	=221	=221	=221	=221	=221
1C	-ri-	2r	.	1e	-glo-	1.g	-ca-	0.r	.
.	.	1G	-ca-	.	.	.	.	.	.
1BB-	.	.	.	1d	-ri-	.	.	.	.
.	.	2B-\	.	.	.	2d\	.	.	.
1C	-fi-	2A/	.	1c	-fi-	1e	.	.	.
.	.	2G/	.	.	.	.	.	.	.
=222	=222	=222	=222	=222	=222	=222	=222	=222	=222
1D	-ca-	1F	.	1B-	-ca-	0f	-tur	0.r	.
0C	-tur	0G	-tur	0c	.	.	.	.	.
.	.	.	.	.	.	1e	.	.	.
=223	=223	=223	=223	=223	=223	=223	=223	=223	=223
1D	qui	1F	qui	0.A	-tur	1f	qui	0.r	.
1C	.	0A	lo-	.	.	1e	.	.	.
1D	lo-	.	.	.	.	1d	lo-	.	.
=224	=224	=224	=224	=224	=224	=224	=224	=224	=224
1E	-cu-	1G	-cu-	0.r	.	1c	-cu-	1g	qui
1D	.	1A	.	.	.	1d	.	1f	lo-
1G	-tus	1B-	-tus	.	.	1e	-tus	1g	-cu-
=225	=225	=225	=225	=225	=225	=225	=225	=225	=225
1.F	est	0c	est	0.r	.	0f	est	1a	-tus
.	.	.	.	.	.	.	.	0cc	est
4E\	.	.	.	.	.	.	.	.	.
4D\	.	.	.	.	.	.	.	.	.
1C	per	1A	per	.	.	1e	per	.	.
=226	=226	=226	=226	=226	=226	=226	=226	=226	=226
0BB-	Pro-	1B-	Pro-	0.r	.	1d	Pro-	0dd	per
.	.	1d	.	.	.	1f	.	.	.
1C	.	1c	.	.	.	1e	.	[1g	.
=227	=227	=227	=227	=227	=227	=227	=227	=227	=227
1E-i	-phe-	1G	-phe-	0.r	.	1c	-phe-	1g]	.
1D	.	1d	.	.	.	0f	.	0a	.
1F	.	1c	.	.	.	.	.	.	.
=228	=228	=228	=228	=228	=228	=228	=228	=228	=228
1G	.	1B-	.	0.r	.	1d	.	1b-	Pro-
1D	.	1d	.	.	.	0f	.	1.a	-phe-
1F	.	[1c	.	.	.	.	.	.	.
.	.	.	.	.	.	.	.	2g/	.
=229	=229	=229	=229	=229	=229	=229	=229	=229	=229
1C	.	1c]	.	0.r	.	1e	.	0g	.
0D	.	0A	-tas.	.	.	0d	.	.	.
.	.	.	.	.	.	.	.	1f#i	.
=230	=230	=230	=230	=230	=230	=230	=230	=230	=230
1G	-tas.	1r	.	0r	.	1d	-tas.	0g	-tas.
1r	.	2.G/	Et	.	.	1r	.	.	.
.	.	4A/	.	.	.	.	.	.	.
=231	=231	=231	=231	=231	=231	=231	=231	=231	=231
0r	.	2B-\	u-	0g	Et	0r	.	0r	.
.	.	2.c\	-nam,	.	.	.	.	.	.
.	.	4B-\	.	.	.	.	.	.	.
.	.	2c\	.	.	.	.	.	.	.
=232	=232	=232	=232	=232	=232	=232	=232	=232	=232
0r	.	2G/	san-	0g	u-	0r	.	0r	.
.	.	2.c\	.	.	.	.	.	.	.
.	.	4d\	.	.	.	.	.	.	.
.	.	[2e\	.	.	.	.	.	.	.
=233	=233	=233	=233	=233	=233	=233	=233	=233	=233
0r	.	2e\]	.	1f	-nam,	0r	.	0r	.
.	.	1d	.	.	.	.	.	.	.
.	.	.	.	1e	san-	.	.	.	.
.	.	2c#i\	.	.	.	.	.	.	.
=234	=234	=234	=234	=234	=234	=234	=234	=234	=234
2.D\	san-	1d	-ctam,	1f	-ctam,	0r	.	0r	.
4E\	.	.	.	.	.	.	.	.	.
2F\	.	1r	.	1d	ca-	.	.	.	.
[2G\	-ctam,	.	.	.	.	.	.	.	.
=235	=235	=235	=235	=235	=235	=235	=235	=235	=235
2G\]	.	0r	.	[0e	-tho-	0r	.	0r	.
1C	ca-	.	.	.	.	.	.	.	.
[2c\	-tho-	.	.	.	.	.	.	.	.
=236	=236	=236	=236	=236	=236	=236	=236	=236	=236
4c\]	.	0r	.	1e]	.	1r	.	0r	.
4B-\	.	.	.	.	.	.	.	.	.
4A\	.	.	.	.	.	.	.	.	.
4G\	.	.	.	.	.	.	.	.	.
1A	-li-	.	.	1f	-li-	2.c\	et	.	.
.	.	.	.	.	.	4d\	.	.	.
=237	=237	=237	=237	=237	=237	=237	=237	=237	=237
1G	-cam	0r	.	1g	-cam	2e-i\	a-	1r	.
.	.	.	.	.	.	1d	-po-	.	.
1r	.	.	.	1r	.	.	.	1dd	et
.	.	.	.	.	.	[2B-\	-sto-	.	.
=238	=238	=238	=238	=238	=238	=238	=238	=238	=238
0r	.	0r	.	0r	.	4B-\]	.	1ff	a-
.	.	.	.	.	.	4c\	.	.	.
.	.	.	.	.	.	2d\	.	.	.
.	.	.	.	.	.	2c\	.	1ee	-po-
.	.	.	.	.	.	[2g\	.	.	.
=239	=239	=239	=239	=239	=239	=239	=239	=239	=239
0r	.	1r	.	0r	.	4g\]	.	1dd	-sto-
.	.	.	.	.	.	4f\	.	.	.
.	.	.	.	.	.	4e-i\	.	.	.
.	.	.	.	.	.	4d\	.	.	.
.	.	1A	ec-	.	.	1e-i	-li-	1cc	-li-
=240	=240	=240	=240	=240	=240	=240	=240	=240	=240
0r	.	4B-\	-cle-	0r	.	1d	-cam	1dd	-cam
.	.	4c\	.	.	.	.	.	.	.
.	.	4d\	.	.	.	.	.	.	.
.	.	4e\	.	.	.	.	.	.	.
.	.	2f\	.	.	.	1r	.	1cc	ec-
.	.	[2e-i\	.	.	.	.	.	.	.
=241	=241	=241	=241	=241	=241	=241	=241	=241	=241
1r	.	4e-\]	.	0r	.	0r	.	1b-	-cle-
.	.	4d\	.	.	.	.	.	.	.
.	.	4c\	.	.	.	.	.	.	.
.	.	4B-\	.	.	.	.	.	.	.
1F	ec-	1c	.	.	.	.	.	1a	-si-
=242	=242	=242	=242	=242	=242	=242	=242	=242	=242
2.G\	-cle-	2.B-\	.	0r	.	0r	.	0b-	-am.
4F\	.	4c\	.	.	.	.	.	.	.
2D\	-si-	2d\	.	.	.	.	.	.	.
[2E-i\	-am.	2G/	-si-	.	.	.	.	.	.
=243	=243	=243	=243	=243	=243	=243	=243	=243	=243
4E-\]	.	4c\	-am.	0c	Con-	0r	.	0r	.
4D\	.	4B-\	.	.	.	.	.	.	.
4C/	.	4A/	.	.	.	.	.	.	.
4BB-/	.	4G/	.	.	.	.	.	.	.
1AA	.	1F	.	.	.	.	.	.	.
=244	=244	=244	=244	=244	=244	=244	=244	=244	=244
1r	.	2.B-\	Con-	1.d	-fi-	2.G/	Con-	0r	.
.	.	4c\	.	.	.	4A/	.	.	.
2r	.	4d\	.	.	.	4B-\	.	.	.
.	.	4e\	.	.	.	4c\	.	.	.
[2BB-/	Con-	[2f\	.	2d\	-te-	[2d\	-fi-	.	.
=245	=245	=245	=245	=245	=245	=245	=245	=245	=245
4BB-/]	.	2f\]	.	1d	-or	4d\]	.	0r	.
4C/	.	.	.	.	.	4e\	.	.	.
2D\	-fi-	2F/	-fi-	.	.	2f\	-te-	.	.
2C/	-te-	2c\	-te-	1G	u-	1e-	-or	.	.
[2E-i\	.	4B-\	.	.	.	.	.	.	.
.	.	4A/	.	.	.	.	.	.	.
=246	=246	=246	=246	=246	=246	=246	=246	=246	=246
4E-\]	.	1G	.	1B-	-num	2r	.	0r	.
4F\	.	.	.	.	.	.	.	.	.
1G	-or	.	.	.	.	2d\	u-	.	.
.	.	1A	-or	1c	bap-	2e\	-num	.	.
2F\	u-	.	.	.	.	[2f\	bap-	.	.
=247	=247	=247	=247	=247	=247	=247	=247	=247	=247
1G	-num	2r	.	2.B-\	-tis-	2f\]	.	0r	.
.	.	2G/	u-	.	.	4e\	.	.	.
.	.	.	.	4A/	.	4d\	.	.	.
1C	bap-	1c	-num	1G	.	1e	-tis-	.	.
=248	=248	=248	=248	=248	=248	=248	=248	=248	=248
0D	-tis-	1A	.	0F	-ma,	1f	-ma,	0r	.
.	.	2r	.	.	.	1r	.	.	.
.	.	[2B-\	bap-	.	.	.	.	.	.
=249	=249	=249	=249	=249	=249	=249	=249	=249	=249
1E	-ma,	2B-\]	.	0r	.	1r	.	1g	in
.	.	1c	-tis-	.	.	.	.	.	.
1D	in	.	.	.	.	1d	in	1f	re-
.	.	2B-\	.	.	.	.	.	.	.
=250	=250	=250	=250	=250	=250	=250	=250	=250	=250
1C	re-	1c	-ma,	0r	.	1e-	re-	1g	-mis-
[1F	-mis-	[1A	in	.	.	1c	-mis-	1a	-si-
=251	=251	=251	=251	=251	=251	=251	=251	=251	=251
2F\]	.	2A/]	.	0r	.	1f	-si-	0cc	-o-
4E\	-si-	2F/	re-	.	.	.	.	.	.
4D\	.	.	.	.	.	.	.	.	.
1C	-o-	2G/	-mis-	.	.	[1e-i	-o-	.	.
.	.	[2c\	-si-	.	.	.	.	.	.
=252	=252	=252	=252	=252	=252	=252	=252	=252	=252
1E-	-nem	4c\]	.	0r	.	1e-]	.	0b-	-nem
.	.	4B-\	.	.	.	.	.	.	.
.	.	2G/	-o-	.	.	.	.	.	.
1G	.	1B-	-nem	.	.	[1d	.	.	.
=253	=253	=253	=253	=253	=253	=253	=253	=253	=253
1F	pec-	2r	.	0r	.	2d\]	.	1a	pec-
.	.	2c\	pec-	.	.	2c\	.	.	.
2E-i\	-ca-	2e-i\	-ca-	.	.	1g	-nem	1b-	.
2G\	.	[2d\	-to-	.	.	.	.	.	.
=254	=254	=254	=254	=254	=254	=254	=254	=254	=254
2D\	-to-	2d\]	.	0r	.	1f	pec-	1a	-ca-
2F\	.	2c\	.	.	.	.	.	.	.
2G\	.	2B-\	.	.	.	2d\	-ca-	1g	.
2C/	.	2c\	.	.	.	2e-i\	.	.	.
=255	=255	=255	=255	=255	=255	=255	=255	=255	=255
1D	-rum.	2.A/	.	0r	.	1d	-to-	0f	-to-
.	.	4G/	.	.	.	.	.	.	.
1D	Et	1A	.	.	.	1d	-rum.	.	.
=256	=256	=256	=256	=256	=256	=256	=256	=256	=256
1E	ex-	1G	-rum.	0r	.	2B-\	Et	1g	-rum.
.	.	.	.	.	.	1c	ex-	.	.
1F	-pec-	1A	Et	.	.	.	.	1r	.
.	.	.	.	.	.	[2d\	-pec-	.	.
=257	=257	=257	=257	=257	=257	=257	=257	=257	=257
1G	-to	1B-	ex-	1d	Et	2d\]	.	0r	.
.	.	.	.	.	.	4c\	.	.	.
.	.	.	.	.	.	4B-\	.	.	.
1r	.	1c	-pec-	1e	ex-	[1A	-to	.	.
=258	=258	=258	=258	=258	=258	=258	=258	=258	=258
1D	re-	1d	-to	1f	-pec-	2A/]	.	0r	.
.	.	.	.	.	.	2d\	re-	.	.
2.E-i\	-sur-	2r	.	1g	-to	2B-\	-sur-	.	.
.	.	[2B-\	re-	.	.	2e-i\	-rec-	.	.
4F\	-rec-	.	.	.	.	.	.	.	.
=259	=259	=259	=259	=259	=259	=259	=259	=259	=259
2G\	-ti-	2B-\]	.	2g\	re-	2d\	-ti-	0r	.
2F\	-o-	2c\	-sur-	2a\	-sur-	2f\	-o-	.	.
1B-	-nem	2G/	-rec-	2g\	-rec-	2d\	-nem	.	.
.	.	[2d\	-ti-	2f\	-ti-	2f\	mor-	.	.
=260	=260	=260	=260	=260	=260	=260	=260	=260	=260
2r	.	2d\]	.	1e	-o-	2g\	-tu-	0r	.
2A\	mor-	2c\	-o-	.	.	1a	-o-	.	.
1B-	-tu-	1d	-nem	1d	-nem	.	.	.	.
.	.	.	.	.	.	2g\	.	.	.
=261	=261	=261	=261	=261	=261	=261	=261	=261	=261
1A	-o-	2r	.	0r	.	1.a	.	1ee	mor-
.	.	1A	mor-	.	.	.	.	.	.
1D	.	.	.	.	.	.	.	1ff	-tu-
.	.	2B-\	-tu-	.	.	2f\	.	.	.
=262	=262	=262	=262	=262	=262	=262	=262	=262	=262
0C	-rum.	0c	-o-	1r	.	1.g	.	0ee	-o-
.	.	.	.	1g	Et	.	.	.	.
.	.	.	.	.	.	2a\	.	.	.
=263	=263	=263	=263	=263	=263	=263	=263	=263	=263
0G	Et	1B-	-rum.	0g	vi-	0b-	-rum.	0dd	-rum.
.	.	1G	.	.	.	.	.	.	.
=264	=264	=264	=264	=264	=264	=264	=264	=264	=264
0D	vi-	0d	Et	[0f	-tam	[0a	Et	0dd	Et
=265	=265	=265	=265	=265	=265	=265	=265	=265	=265
1F	.	1A	vi-	1f]	.	1a]	.	1cc	vi-
1G	.	1B-	.	1d	ven-	1g	vi-	1b-	.
=266	=266	=266	=266	=266	=266	=266	=266	=266	=266
0F	-tam	0c	-tam	0f	-tu-	1a	-tam	0a	-tam
.	.	.	.	.	.	1f	.	.	.
=267	=267	=267	=267	=267	=267	=267	=267	=267	=267
1.BB-	ven-	1.B-	ven-	0d	-ri	0f	ven-	0b-	ven-
2C/	-tu-	4A/	.	.	.	.	.	.	.
.	.	4G/	.	.	.	.	.	.	.
=268	=268	=268	=268	=268	=268	=268	=268	=268	=268
0D	-ri	2.F/	.	1d	se-	0f	-tu-	0a	-tu-
.	.	4G/	.	.	.	.	.	.	.
.	.	1A	.	1d	-cu-	.	.	.	.
=269	=269	=269	=269	=269	=269	=269	=269	=269	=269
1r	.	2.B-\	-tu-	1G	-li	1g	-ri	0g	-ri
.	.	4c\	.	.	.	.	.	.	.
1G	se-	1d	.	1B-	.	1g	se-	.	.
=270	=270	=270	=270	=270	=270	=270	=270	=270	=270
2F\	.	1A	-ri	2c\	A-	2c\	.	1a	se-
2D\	-cu-	.	.	1d	.	2f\	.	.	.
1G	-li	2r	.	.	.	2.d\	.	1b-	.
.	.	2G/	se-	4c\	.	.	.	.	.
.	.	.	.	4B-\	.	4e\	.	.	.
=271	=271	=271	=271	=271	=271	=271	=271	=271	=271
2F\	A-	2A/	.	2c\	.	2f\	.	2a/	-cu-
2G\	.	2B-\	.	2B-\	.	2d\	-cu-	2g/	-li
2F\	.	2c\	.	2A/	.	1a	-li	2.cc\	A-
4E\	.	2F/	-cu-	[2c\	.	.	.	.	.
4D\	.	.	.	.	.	.	.	4dd\	.
=272	=272	=272	=272	=272	=272	=272	=272	=272	=272
2C/	.	2G/	-li	2c\]	.	2r	.	2ee\	.
2.BB-/	.	2.B-\	A-	2d\	.	2d\	A-	2.dd\	.
.	.	.	.	2B-\	.	2f\	.	.	.
4C/	.	4A/	.	.	.	.	.	4cc\	.
2D\	.	2F/	.	2f\	.	2d\	.	4b-\	.
.	.	.	.	.	.	.	.	4a/	.
=273	=273	=273	=273	=273	=273	=273	=273	=273	=273
2C/	.	2G/	.	2e\	.	2g\	.	4cc\	.
.	.	.	.	.	.	.	.	4b-\	.
2F\	.	1A	.	2c\	.	1f	.	4a/	.
.	.	.	.	.	.	.	.	4g/	.
2D\	.	.	.	2.d\	.	.	.	2f/	.
2G\	.	2G/	-men,	.	.	2d\	.	2b-\	.
.	.	.	.	4B-\	.	.	.	.	.
=274	=274	=274	=274	=274	=274	=274	=274	=274	=274
2F\	.	1r	.	2c\	.	4f\	.	2a/	.
.	.	.	.	.	.	4e\	.	.	.
2E\	.	.	.	2G/	.	4d\	.	1g	.
.	.	.	.	.	.	4c\	.	.	.
1D	.	2r	.	1A	.	[1d	.	.	.
.	.	2d\	A-	.	.	.	.	2f#i/	.
=275	=275	=275	=275	=275	=275	=275	=275	=275	=275
[0G\l	-men.	2B-\	.	[0G/l	-men.	2d\]	.	[0g/l	-men.
.	.	2e-i\	.	.	.	2B-\	.	.	.
.	.	1d	.	.	.	1B-	.	.	.
=276	=276	=276	=276	=276	=276	=276	=276	=276	=276
0G]	.	0Bn\l	-men.	0G]	.	0d\l	-men.	0g]	.
==	==	==	==	==	==	==	==	==	==
*-	*-	*-	*-	*-	*-	*-	*-	*-	*-
!!!RDF**kern: l=long note in original notation
!!!RDF**kern: i=editorial accidental
!!!RDF**kern: V=start of tuplet marker
!!!RDF**kern: Z=end of tuplet marker
!!!ENC:	Jesse Rodin (8/2012)
!!!END:	2012/08/11/
!!!EED:	Jesse Rodin
!!!EEV:	2012/08/13/
!!!ONB:	Translated from MusicXML and edited on 2012/08/13/ by Craig Sapp
!!muse2ps: C^@{COM}^i2I150v85,85,85,85,130Q8c120
